X:1
T: Earl Marshall's Reel
C:
R:Reel
Q: 232
K:F
M:4/4
L:1/8
|:A|F2 FA cA AB|A1/2B1/2c FA cA Af|F2 FA cA Ac|df cA G1/2G1/2G GA|
F2 FA cA AB|A1/2B1/2c FA cA Af|F2 FA cA Ac|df cA G1/2G1/2G Gg|
f1/2g1/2a fc d2 df|cf Af cf Af|a1/2g1/2f1/2e1/2 fc d2 df|cA fd cA Ag|
f1/2g1/2a fc d2 df|cf Af cf Af|a1/2g1/2f1/2e1/2 fc d2 df|cA fd cAG:|
